; generated by PrusaSlicer 2.1.1+linux64 on 2020-03-16 at 21:14:41 UTC

; 

; external perimeters extrusion width = 0.45mm
; perimeters extrusion width = 0.45mm
; infill extrusion width = 0.45mm
; solid infill extrusion width = 0.45mm
; top infill extrusion width = 0.40mm
; support material extrusion width = 0.35mm
; first layer extrusion width = 0.42mm

M73 P0 R11
M73 Q0 S11
M201 X1000 Y1000 Z1000 E5000 ; sets maximum accelerations, mm/sec^2
M203 X200 Y200 Z12 E120 ; sets maximum feedrates, mm/sec
M204 P1250 R1250 T1250 ; sets acceleration (P, T) and retract acceleration (R), mm/sec^2
M205 X8.00 Y8.00 Z0.40 E4.50 ; sets the jerk limits, mm/sec
M205 S0 T0 ; sets the minimum extruding and travel feed rate, mm/sec
M107
M862.3 P "MK3S" ; printer model check
M862.1 P0.4 ; nozzle diameter check
M115 U3.8.1 ; tell printer latest fw version
G90 ; use absolute coordinates
M83 ; extruder relative mode
M104 S215 ; set extruder temp
M140 S60 ; set bed temp
M190 S60 ; wait for bed temp
M109 S215 ; wait for extruder temp
G28 W ; home all without mesh bed level
G80 ; mesh bed leveling
G1 Y-3.0 F1000.0 ; go outside print area
G92 E0.0
G1 X60.0 E9.0 F1000.0 ; intro line
M73 Q0 S11
M73 P0 R11
G1 X100.0 E12.5 F1000.0 ; intro line
G92 E0.0
M221 S95
G21 ; set units to millimeters
G90 ; use absolute coordinates
M83 ; use relative distances for extrusion
M900 K30 ; Filament gcode
;BEFORE_LAYER_CHANGE
G92 E0.0
;0.2


G1 E-0.80000 F2100.00000
G1 Z0.600 F10800.000
;AFTER_LAYER_CHANGE
;0.2
G1 X118.068 Y82.769
G1 Z0.200
G1 E0.80000 F2100.00000
M204 S1000
G1 F1200
G1 X118.658 Y82.302 E0.02361
G1 X119.363 Y82.026 E0.02374
G1 X119.916 Y81.961 E0.01746
G1 X126.729 Y81.960 E0.21361
G1 X129.984 Y82.142 E0.10223
G1 X130.759 Y82.341 E0.02508
G1 X131.326 Y82.678 E0.02066
G1 X131.787 Y83.148 E0.02066
G1 X132.114 Y83.720 E0.02066
G1 X132.285 Y84.360 E0.02079
G1 X132.273 Y123.834 E1.23766
G1 X132.019 Y124.597 E0.02521
G1 X131.545 Y125.241 E0.02508
G1 X130.892 Y125.710 E0.02521
G1 X130.130 Y125.952 E0.02508
G1 X121.402 Y125.982 E0.27364
G1 X119.521 Y125.778 E0.05932
G1 X118.702 Y125.495 E0.02717
G1 X118.024 Y124.956 E0.02717
G1 X117.564 Y124.222 E0.02717
G1 X117.375 Y123.376 E0.02717
G1 X117.406 Y84.109 E1.23122
G1 X117.638 Y83.388 E0.02374
G1 X118.033 Y82.819 E0.02173
G1 F8640
G1 X118.658 Y82.302 E-0.18719
G1 X119.363 Y82.026 E-0.17479
G1 X119.916 Y81.961 E-0.12858
G1 X121.083 Y81.961 E-0.26943
G1 E-0.04000 F2100.00000
G1 Z0.800 F10800.000
G1 X119.500 Y82.382
G1 Z0.200
G1 E0.80000 F2100.00000
G1 F1200
G1 X126.729 Y82.338 E0.22666
G1 X129.930 Y82.515 E0.10054
G1 X130.560 Y82.666 E0.02032
G1 X131.064 Y82.952 E0.01817
G1 X131.476 Y83.360 E0.01817
G1 X131.767 Y83.866 E0.01828
G1 X131.913 Y84.426 E0.01817
G1 X131.900 Y123.777 E1.23380
G1 X131.678 Y124.435 E0.02179
G1 X131.261 Y124.991 E0.02179
G1 X130.691 Y125.388 E0.02179
G1 X130.028 Y125.586 E0.02168
G1 X121.409 Y125.605 E0.27024
G1 X119.581 Y125.406 E0.05767
G1 X118.880 Y125.163 E0.02326
G1 X118.300 Y124.699 E0.02326
G1 X117.909 Y124.069 E0.02326
G1 X117.751 Y123.344 E0.02326
G1 X117.779 Y84.166 E1.22839
G1 X117.984 Y83.540 E0.02066
G1 X118.364 Y83.005 E0.02055
G1 X118.884 Y82.608 E0.02055
G1 X119.443 Y82.402 E0.01867
G1 F8640
G1 X122.735 Y82.373 E-0.76000
G1 E-0.04000 F2100.00000
G1 Z0.800 F10800.000
G1 X119.938 Y84.526
G1 Z0.200
G1 E0.80000 F2100.00000
G1 F1200
G1 X119.938 Y123.247 E1.21406
G1 X120.692 Y123.247 E0.02365
G1 X120.692 Y84.696 E1.20874
G1 X121.446 Y84.696 E0.02365
G1 X121.446 Y123.416 E1.21406
G1 F8640
G1 X121.446 Y120.125 E-0.76000
G1 E-0.04000 F2100.00000
G1 Z0.800 F10800.000
G1 X123.257 Y120.419
G1 Z0.200
G1 E0.80000 F2100.00000
G1 F1200
G1 X123.257 Y87.671 E0.83617
G1 X122.729 Y87.671 E0.01350
G1 X122.729 Y120.271 E0.83239
G1 X122.200 Y120.271 E0.01350
G1 X122.200 Y87.524 E0.83617
G1 F8640
G1 X122.200 Y90.815 E-0.76000
G1 E-0.04000 F2100.00000
G1 Z0.800 F10800.000
G1 X126.725 Y84.526
G1 Z0.200
G1 E0.80000 F2100.00000
G1 F1200
G1 X126.725 Y87.319 E0.08755
G1 X125.971 Y87.319 E0.02365
G1 X125.971 Y84.696 E0.08223
G1 X125.217 Y84.696 E0.02365
G1 X125.217 Y87.319 E0.08223
G1 X124.462 Y87.319 E0.02365
G1 X124.462 Y84.696 E0.08223
G1 X123.708 Y84.696 E0.02365
G1 X123.708 Y87.319 E0.08223
G1 X122.954 Y87.319 E0.02365
G1 X122.954 Y84.696 E0.08224
G1 X122.200 Y84.696 E0.02365
G1 X122.200 Y87.319 E0.08224
G1 X121.847 Y87.319 E0.01107
G1 X121.847 Y120.624 E1.04426
G1 X122.200 Y120.624 E0.01106
G1 X122.200 Y123.247 E0.08223
G1 X122.954 Y123.247 E0.02365
G1 X122.954 Y120.624 E0.08223
G1 X123.708 Y120.624 E0.02365
G1 X123.708 Y123.247 E0.08223
G1 X124.462 Y123.247 E0.02365
G1 X124.462 Y120.624 E0.08224
G1 X125.217 Y120.624 E0.02365
G1 X125.217 Y123.247 E0.08224
G1 X125.971 Y123.247 E0.02365
G1 X125.971 Y120.624 E0.08224
G1 X126.725 Y120.624 E0.02365
G1 X126.725 Y123.247 E0.08224
G1 X127.479 Y123.247 E0.02365
G1 X127.479 Y84.696 E1.20874
G1 X128.233 Y84.696 E0.02365
G1 X128.233 Y123.247 E1.20874
G1 X128.987 Y123.247 E0.02365
G1 X128.987 Y84.696 E1.20874
G1 X129.742 Y84.696 E0.02365
G1 X129.742 Y123.416 E1.21406
G1 F8640
G1 X129.742 Y120.125 E-0.76000
G1 E-0.04000 F2100.00000
G1 Z0.800 F10800.000
G1 X126.428 Y120.419
G1 Z0.200
G1 E0.80000 F2100.00000
G1 F1200
G1 X126.428 Y87.671 E0.83617
G1 X125.900 Y87.671 E0.01350
G1 X125.900 Y90.247 E0.06575
G1 X125.823 Y90.070 E0.00490
G1 X125.481 Y89.748 E0.01200
G1 X125.371 Y89.704 E0.00303
G1 X125.371 Y87.671 E0.05190
G1 X124.843 Y87.671 E0.01350
G1 X124.843 Y89.668 E0.05099
G1 X124.617 Y89.668 E0.00575
G1 X124.420 Y89.747 E0.00544
G1 X124.314 Y89.846 E0.00370
G1 X124.314 Y87.671 E0.05554
G1 X123.786 Y87.671 E0.01350
G1 X123.786 Y92.556 E0.12472
G1 X123.586 Y92.773 E0.00754
G1 X123.586 Y93.827 E0.02690
G1 X123.786 Y94.044 E0.00754
G1 X123.786 Y104.242 E0.26038
G1 X123.690 Y104.250 E0.00244
G1 X123.485 Y104.473 E0.00775
G1 X123.485 Y105.527 E0.02690
G1 X123.690 Y105.750 E0.00775
G1 X123.786 Y105.758 E0.00244
G1 X123.786 Y115.956 E0.26038
G1 X123.586 Y116.173 E0.00754
G1 X123.586 Y117.227 E0.02690
G1 X123.786 Y117.444 E0.00754
G1 X123.786 Y120.271 E0.07218
G1 X124.314 Y120.271 E0.01350
G1 X124.314 Y119.950 E0.00819
G1 X124.462 Y120.042 F10800.000
G1 F1200
G1 X124.462 Y117.490 E0.08001
G1 X124.745 Y117.498 E0.00886
G1 X124.745 Y119.572 E0.06501
G1 X125.155 Y119.571 E0.01285
G1 X125.155 Y117.504 E0.06481
G1 X125.217 Y117.502 E0.00194
G1 X125.217 Y120.148 E0.08297
G1 X125.900 Y120.419 F10800.000
G1 F1200
G1 X125.900 Y117.336 E0.07871
G1 F8640
G1 X125.900 Y120.419 E-0.71180
G1 E-0.08820 F2100.00000
G1 Z0.800 F10800.000
G1 X125.217 Y116.068
G1 Z0.200
G1 E0.80000 F2100.00000
G1 F1200
G1 X125.217 Y105.629 E0.32728
G1 X124.462 Y105.623 F10800.000
G1 F1200
G1 X124.462 Y116.080 E0.32787
G1 F8640
G1 X124.462 Y112.788 E-0.76000
G1 E-0.04000 F2100.00000
G1 Z0.800 F10800.000
G1 X124.462 Y104.377
G1 Z0.200
G1 E0.80000 F2100.00000
G1 F1200
G1 X124.462 Y93.920 E0.32787
G1 X125.217 Y93.932 F10800.000
G1 F1200
G1 X125.217 Y104.371 E0.32728
G1 F8640
G1 X125.217 Y101.079 E-0.76000
G1 E-0.04000 F2100.00000
G1 Z0.800 F10800.000
G1 X125.217 Y92.668
G1 Z0.200
G1 E0.80000 F2100.00000
G1 F1200
G1 X125.217 Y90.022 E0.08295
G1 X124.685 Y90.021 E0.01667
G1 X124.613 Y90.050 E0.00244
G1 X124.462 Y90.192 E0.00647
G1 X124.462 Y92.680 E0.07802
G1 F8640
G1 X124.462 Y90.192 E-0.57456
G1 X124.613 Y90.050 E-0.04762
G1 X124.685 Y90.021 E-0.01799
G1 X125.204 Y90.022 E-0.11983
G1 E-0.04000 F2100.00000
G1 Z0.800 F10800.000
G1 X124.631 Y116.530
G1 Z0.200
G1 E0.80000 F2100.00000
G1 F1200
G1 X125.470 Y116.529 E0.02629
G1 X125.470 Y116.871 E0.01072
G1 X124.631 Y116.871 E0.02629
G1 X124.631 Y116.590 E0.00880
G1 X125.028 Y116.581 F10800.000
G1 F8640
G1 X125.470 Y116.529 E-0.19413
G1 X125.470 Y116.871 E-0.07896
G1 X124.631 Y116.871 E-0.19362
G1 X124.631 Y116.590 E-0.06480
G1 E-0.26849 F2100.00000
G1 Z0.800 F10800.000
G1 X124.530 Y105.171
G1 Z0.200
G1 E0.80000 F2100.00000
G1 F1200
G1 X124.530 Y104.830 E0.01068
G1 X125.370 Y104.829 E0.02631
G1 X125.370 Y105.171 E0.01072
G1 X124.590 Y105.173 E0.02443
G1 X124.661 Y104.857 F10800.000
G1 F8640
G1 X124.530 Y104.830 E-0.08025
G1 X125.370 Y104.829 E-0.19379
G1 X125.370 Y105.171 E-0.07896
G1 X124.590 Y105.173 E-0.17994
G1 E-0.26706 F2100.00000
G1 Z0.800 F10800.000
G1 X124.631 Y93.471
G1 Z0.200
G1 E0.80000 F2100.00000
G1 F1200
G1 X124.631 Y93.130 E0.01068
G1 X125.470 Y93.129 E0.02629
G1 X125.470 Y93.471 E0.01072
G1 X124.691 Y93.473 E0.02441
G1 X124.762 Y93.157 F10800.000
M106 S255
;BEFORE_LAYER_CHANGE
G92 E0.0
;0.3


G1 F8640
G1 X124.631 Y93.130 E-0.08025
G1 X125.470 Y93.129 E-0.19362
G1 X125.470 Y93.471 E-0.07896
G1 X124.691 Y93.473 E-0.17977
G1 E-0.26740 F2100.00000
G1 Z0.800 F10800.000
;AFTER_LAYER_CHANGE
;0.3
G1 X117.406 Y84.109
G1 Z0.300
G1 E0.80000 F2100.00000
G1 F964
G1 X117.638 Y83.388 E0.01254
G1 X118.068 Y82.769 E0.01248
G1 X118.658 Y82.302 E0.01248
G1 X119.363 Y82.026 E0.01254
G1 X119.916 Y81.961 E0.00923
G1 X126.729 Y81.960 E0.11288
G1 X129.984 Y82.142 E0.05402
G1 X130.759 Y82.341 E0.01326
G1 X131.326 Y82.678 E0.01092
G1 X131.787 Y83.148 E0.01092
G1 X132.114 Y83.720 E0.01092
G1 X132.285 Y84.360 E0.01098
G1 X132.273 Y123.834 E0.65405
G1 X132.019 Y124.597 E0.01332
G1 X131.545 Y125.241 E0.01326
G1 X130.892 Y125.710 E0.01332
G1 X130.130 Y125.952 E0.01326
G1 X121.402 Y125.982 E0.14461
G1 X119.521 Y125.778 E0.03135
G1 X118.702 Y125.495 E0.01436
G1 X118.024 Y124.956 E0.01436
G1 X117.564 Y124.222 E0.01436
G1 X117.375 Y123.376 E0.01436
G1 X117.406 Y84.169 E0.64965
G1 F8640
G1 X117.638 Y83.388 E-0.18803
G1 X118.068 Y82.769 E-0.17389
G1 X118.658 Y82.302 E-0.17389
G1 X119.363 Y82.026 E-0.17479
G1 X119.575 Y82.001 E-0.04939
G1 E-0.04000 F2100.00000
G1 Z0.900 F10800.000
G1 X122.200 Y87.524
G1 Z0.300
G1 E0.80000 F2100.00000
G1 F964
G1 X122.200 Y120.271 E0.44730
M73 Q9 S10
M73 P9 R10
G1 X122.729 Y120.271 E0.00722
G1 X122.729 Y87.671 E0.44528
G1 X123.257 Y87.671 E0.00722
G1 X123.257 Y120.419 E0.44730
G1 F8640
G1 X123.257 Y117.127 E-0.76000
G1 E-0.04000 F2100.00000
G1 Z0.900 F10800.000
G1 X124.314 Y120.029
G1 Z0.300
G1 E0.80000 F2100.00000
G1 F964
G1 X124.314 Y120.271 E0.00331
G1 X123.786 Y120.271 E0.00722
G1 X123.786 Y117.466 E0.03831
G1 X123.594 Y117.450 E0.00262
G1 X123.389 Y117.227 E0.00415
G1 X123.389 Y116.173 E0.01439
G1 X123.594 Y115.950 E0.00415
G1 X123.786 Y115.934 E0.00262
G1 X123.786 Y105.775 E0.13876
G1 X123.494 Y105.750 E0.00400
G1 X123.288 Y105.527 E0.00415
G1 X123.288 Y104.473 E0.01439
G1 X123.494 Y104.250 E0.00415
G1 X123.786 Y104.225 E0.00400
G1 X123.786 Y94.066 E0.13876
G1 X123.594 Y94.050 E0.00262
G1 X123.389 Y93.827 E0.00415
G1 X123.389 Y92.773 E0.01439
G1 X123.594 Y92.550 E0.00415
G1 X123.786 Y92.534 E0.00262
G1 X123.786 Y87.671 E0.06642
G1 X124.314 Y87.671 E0.00722
G1 X124.314 Y89.767 E0.02862
G1 X124.422 Y89.666 E0.00202
G1 X124.560 Y89.611 E0.00203
G1 X124.843 Y89.611 E0.00386
G1 X124.843 Y87.671 E0.02649
G1 X125.371 Y87.671 E0.00722
G1 X125.371 Y89.623 E0.02666
G1 X125.479 Y89.666 E0.00159
G1 X125.900 Y90.063 E0.00789
G1 X125.900 Y87.671 E0.03266
G1 X126.428 Y87.671 E0.00722
G1 X126.428 Y92.543 E0.06654
G1 X126.507 Y92.550 E0.00107
G1 X126.712 Y92.773 E0.00415
G1 X126.712 Y93.827 E0.01439
G1 X126.507 Y94.050 E0.00415
G1 X126.428 Y94.057 E0.00107
G1 X126.428 Y104.274 E0.13956
G1 X126.612 Y104.473 E0.00370
G1 X126.612 Y105.527 E0.01439
G1 X126.428 Y105.726 E0.00370
G1 X126.428 Y116.092 E0.14158
G1 F8640
G1 X126.428 Y112.800 E-0.76000
G1 E-0.04000 F2100.00000
G1 Z0.900 F10800.000
G1 X126.428 Y120.419
G1 Z0.300
G1 E0.80000 F2100.00000
G1 F964
G1 X126.428 Y117.457 E0.04046
G1 X125.973 Y117.495 E0.00624
G1 X125.973 Y119.780 E0.03122
G1 X125.900 Y119.937 E0.00236
G1 X125.900 Y120.419 E0.00659
G1 F8640
G1 X125.900 Y119.937 E-0.11133
G1 X125.973 Y119.780 E-0.03989
G1 X125.973 Y117.495 E-0.52769
G1 X126.323 Y117.466 E-0.08109
G1 E-0.04000 F2100.00000
G1 Z0.900 F10800.000
G1 X125.050 Y116.895
G1 Z0.300
G1 E0.80000 F2100.00000
M204 S800
G1 F964
G1 X124.221 Y116.860 E0.01478
G1 F1500
G1 X124.200 Y116.859 E0.00078
G1 X124.200 Y116.532 E0.01197
G1 X124.221 Y116.530 E0.00078
G1 F964
G1 X125.249 Y116.510 E0.01832
G1 X125.880 Y116.539 E0.01124
G1 F1500
G1 X125.901 Y116.540 E0.00079
G1 X125.901 Y116.859 E0.01168
G1 X125.880 Y116.860 E0.00079
G1 F964
G1 X125.110 Y116.893 E0.01373
M204 S1000
G1 F8640
G1 X124.221 Y116.860 E-0.20537
G1 E-0.59463 F2100.00000
G1 Z0.900 F10800.000
G1 X124.950 Y105.195
G1 Z0.300
G1 E0.80000 F2100.00000
M204 S800
G1 F964
G1 X124.120 Y105.160 E0.01479
G1 F1500
G1 X124.099 Y105.159 E0.00078
G1 X124.099 Y104.832 E0.01197
G1 X124.120 Y104.830 E0.00078
G1 F964
G1 X125.149 Y104.810 E0.01833
G1 X125.780 Y104.839 E0.01125
G1 F1500
G1 X125.801 Y104.840 E0.00078
G1 X125.801 Y105.159 E0.01168
G1 X125.780 Y105.160 E0.00078
G1 F964
G1 X125.010 Y105.193 E0.01373
M204 S1000
G1 F8640
G1 X124.120 Y105.160 E-0.20554
G1 E-0.59446 F2100.00000
G1 Z0.900 F10800.000
G1 X125.050 Y93.495
G1 Z0.300
G1 E0.80000 F2100.00000
M204 S800
G1 F964
G1 X124.221 Y93.460 E0.01478
G1 F1500
G1 X124.200 Y93.459 E0.00078
G1 X124.200 Y93.132 E0.01197
G1 X124.221 Y93.130 E0.00078
G1 F964
G1 X125.249 Y93.110 E0.01832
G1 X125.880 Y93.139 E0.01124
G1 F1500
G1 X125.901 Y93.140 E0.00079
G1 X125.901 Y93.459 E0.01168
G1 X125.880 Y93.460 E0.00079
G1 F964
G1 X125.110 Y93.493 E0.01373
M204 S1000
;BEFORE_LAYER_CHANGE
G92 E0.0
;0.4


G1 F8640
G1 X124.221 Y93.460 E-0.20537
G1 E-0.59463 F2100.00000
G1 Z0.900 F10800.000
;AFTER_LAYER_CHANGE
;0.4
G1 X117.406 Y84.109
G1 Z0.400
G1 E0.80000 F2100.00000
G1 F900
G1 X117.638 Y83.388 E0.01254
G1 X118.068 Y82.769 E0.01248
G1 X118.658 Y82.302 E0.01248
G1 X119.363 Y82.026 E0.01254
G1 X119.916 Y81.961 E0.00923
G1 X126.729 Y81.960 E0.11288
G1 X129.984 Y82.142 E0.05402
G1 X130.759 Y82.341 E0.01326
G1 X131.326 Y82.678 E0.01092
G1 X131.787 Y83.148 E0.01092
G1 X132.114 Y83.720 E0.01092
G1 X132.285 Y84.360 E0.01098
G1 X132.273 Y123.834 E0.65405
G1 X132.019 Y124.597 E0.01332
G1 X131.545 Y125.241 E0.01326
G1 X130.892 Y125.710 E0.01332
G1 X130.130 Y125.952 E0.01326
G1 X121.402 Y125.982 E0.14461
G1 X119.521 Y125.778 E0.03135
G1 X118.702 Y125.495 E0.01436
G1 X118.024 Y124.956 E0.01436
G1 X117.564 Y124.222 E0.01436
G1 X117.375 Y123.376 E0.01436
G1 X117.406 Y84.169 E0.64965
G1 F8640
G1 X117.638 Y83.388 E-0.18803
G1 X118.068 Y82.769 E-0.17389
G1 X118.658 Y82.302 E-0.17389
G1 X119.363 Y82.026 E-0.17479
G1 X119.575 Y82.001 E-0.04939
G1 E-0.04000 F2100.00000
G1 Z1.000 F10800.000
G1 X127.005 Y87.671
G1 Z0.400
G1 E0.80000 F2100.00000
G1 F900
G1 X122.200 Y87.671 E0.06563
G1 X122.200 Y90.000 E0.03181
G1 X123.720 Y90.000 E0.02076
G1 X123.635 Y90.266 E0.00381
G1 X123.635 Y92.329 E0.02818
G1 X122.200 Y92.329 E0.01960
G1 X122.200 Y94.657 E0.03181
G1 X123.635 Y94.657 E0.01960
G1 X123.635 Y96.986 E0.03181
G1 X122.200 Y96.986 E0.01960
G1 X122.200 Y99.314 E0.03181
G1 X123.635 Y99.314 E0.01960
G1 X123.635 Y101.643 E0.03181
G1 X122.200 Y101.643 E0.01960
G1 X122.200 Y103.971 E0.03181
G1 X123.635 Y103.971 E0.01960
G1 X123.635 Y104.222 E0.00342
G1 X123.298 Y104.250 E0.00462
G1 X123.092 Y104.473 E0.00415
G1 X123.092 Y105.527 E0.01439
G1 X123.298 Y105.750 E0.00415
G1 X123.635 Y105.778 E0.00462
G1 X123.635 Y106.300 E0.00712
G1 X122.200 Y106.300 E0.01960
G1 X122.200 Y108.628 E0.03181
G1 X123.635 Y108.628 E0.01960
G1 X123.635 Y110.957 E0.03181
G1 X122.200 Y110.957 E0.01960
G1 X122.200 Y113.285 E0.03181
G1 X123.635 Y113.285 E0.01960
G1 X123.635 Y115.614 E0.03181
G1 X122.200 Y115.614 E0.01960
G1 X122.200 Y117.942 E0.03181
G1 X123.783 Y117.942 E0.02162
G1 F8640
G1 X122.200 Y117.942 E-0.36545
G1 X122.200 Y116.234 E-0.39455
G1 E-0.04000 F2100.00000
G1 Z1.000 F10800.000
G1 X126.117 Y117.942
G1 Z0.400
G1 E0.80000 F2100.00000
G1 F900
G1 X127.005 Y117.942 E0.01212
G1 X127.005 Y120.271 F10800.000
G1 F900
G1 X122.052 Y120.271 E0.06765
G1 F8640
G1 X125.344 Y120.271 E-0.76000
G1 E-0.04000 F2100.00000
G1 Z1.000 F10800.000
G1 X127.005 Y115.614
G1 Z0.400
G1 E0.80000 F2100.00000
G1 F900
G1 X126.265 Y115.614 E0.01010
G1 X126.265 Y113.285 E0.03181
G1 X126.857 Y113.285 E0.00808
G1 X126.857 Y110.957 E0.03181
G1 X126.265 Y110.957 E0.00808
G1 X126.265 Y108.628 E0.03181
G1 X126.857 Y108.628 E0.00808
