; generated by PrusaSlicer 2.1.1+linux64 on 2020-03-16 at 21:30:55 UTC

; 

; external perimeters extrusion width = 0.45mm
; perimeters extrusion width = 0.45mm
; infill extrusion width = 0.45mm
; solid infill extrusion width = 0.45mm
; top infill extrusion width = 0.40mm
; support material extrusion width = 0.35mm
; first layer extrusion width = 0.42mm

M73 P0 R15
M73 Q0 S15
M201 X1000 Y1000 Z1000 E5000 ; sets maximum accelerations, mm/sec^2
M203 X200 Y200 Z12 E120 ; sets maximum feedrates, mm/sec
M204 P1250 R1250 T1250 ; sets acceleration (P, T) and retract acceleration (R), mm/sec^2
M205 X8.00 Y8.00 Z0.40 E4.50 ; sets the jerk limits, mm/sec
M205 S0 T0 ; sets the minimum extruding and travel feed rate, mm/sec
M107
M862.3 P "MK3S" ; printer model check
M862.1 P0.4 ; nozzle diameter check
M115 U3.8.1 ; tell printer latest fw version
G90 ; use absolute coordinates
M83 ; extruder relative mode
M104 S215 ; set extruder temp
M140 S60 ; set bed temp
M190 S60 ; wait for bed temp
M109 S215 ; wait for extruder temp
G28 W ; home all without mesh bed level
G80 ; mesh bed leveling
G1 Y-3.0 F1000.0 ; go outside print area
G92 E0.0
G1 X60.0 E9.0 F1000.0 ; intro line
M73 Q0 S14
M73 P0 R14
G1 X100.0 E12.5 F1000.0 ; intro line
G92 E0.0
M221 S95
G21 ; set units to millimeters
G90 ; use absolute coordinates
M83 ; use relative distances for extrusion
M900 K30 ; Filament gcode
;BEFORE_LAYER_CHANGE
G92 E0.0
;0.2


G1 E-0.80000 F2100.00000
G1 Z0.600 F10800.000
;AFTER_LAYER_CHANGE
;0.2
G1 X108.628 Y100.355
G1 Z0.200
G1 E0.80000 F2100.00000
M204 S1000
G1 F1200
G1 X109.054 Y99.578 E0.02777
G1 X123.011 Y83.265 E0.67315
G1 X123.506 Y82.841 E0.02044
G1 X124.037 Y82.600 E0.01828
G1 X124.613 Y82.508 E0.01828
G1 X137.116 Y82.507 E0.39204
G1 X137.930 Y82.664 E0.02597
G1 X138.627 Y83.112 E0.02597
G1 X139.107 Y83.786 E0.02597
G1 X139.302 Y84.588 E0.02586
G1 X139.305 Y123.420 E1.21756
G1 X139.209 Y124.057 E0.02021
G1 X138.929 Y124.642 E0.02032
G1 X138.491 Y125.119 E0.02032
G1 X137.932 Y125.447 E0.02032
G1 X137.301 Y125.597 E0.02032
G1 X131.793 Y125.604 E0.17269
G1 X124.593 Y125.434 E0.22582
G1 X124.025 Y125.339 E0.01805
G1 X123.280 Y124.939 E0.02653
G1 X109.319 Y113.454 E0.56680
G1 X108.857 Y112.921 E0.02213
G1 X108.621 Y112.391 E0.01817
G1 X108.533 Y111.815 E0.01828
G1 X108.532 Y100.977 E0.33982
G1 X108.619 Y100.414 E0.01787
G1 F8640
G1 X109.054 Y99.578 E-0.21757
G1 X110.581 Y97.793 E-0.54243
G1 E-0.04000 F2100.00000
G1 Z0.800 F10800.000
G1 X113.886 Y108.776
G1 Z0.200
G1 E0.80000 F2100.00000
G1 F1200
G1 X113.886 Y103.971 E0.12269
G1 X114.414 Y103.971 E0.01350
G1 X114.414 Y108.628 E0.11891
G1 X114.943 Y108.628 E0.01350
G1 X114.943 Y103.971 E0.11891
G1 X115.471 Y103.971 E0.01350
G1 X115.471 Y108.776 E0.12269
G1 F8640
G1 X115.471 Y105.485 E-0.76000
G1 E-0.04000 F2100.00000
G1 Z0.800 F10800.000
G1 X118.262 Y106.282
G1 Z0.200
G1 E0.80000 F2100.00000
G1 F1200
G1 X118.262 Y105.705 E0.01809
G1 X117.508 Y105.705 E0.02365
G1 X117.508 Y106.112 E0.01277
G1 X116.754 Y106.112 E0.02365
G1 X116.754 Y105.705 E0.01277
G1 X116.429 Y105.705 E0.01019
G1 X116.428 Y105.295 E0.01285
G1 X116.754 Y105.295 E0.01022
G1 X116.754 Y104.888 E0.01278
G1 X117.508 Y104.888 E0.02365
G1 X117.508 Y105.295 E0.01277
G1 X118.262 Y105.295 E0.02365
G1 X118.262 Y104.718 E0.01809
G1 F8640
G1 X118.262 Y105.295 E-0.13325
G1 X117.508 Y105.295 E-0.17414
G1 X117.508 Y104.888 E-0.09407
G1 X116.754 Y104.888 E-0.17414
G1 X116.754 Y105.295 E-0.09408
G1 X116.428 Y105.295 E-0.07523
G1 X116.428 Y105.361 E-0.01509
G1 E-0.04000 F2100.00000
G1 Z0.800 F10800.000
G1 X119.771 Y104.627
G1 Z0.200
G1 E0.80000 F2100.00000
G1 F1200
G1 X119.771 Y104.218 E0.01281
G1 X120.525 Y105.465 F10800.000
G1 F1200
G1 X120.525 Y104.888 E0.01809
G1 X121.279 Y104.888 E0.02365
G1 X121.279 Y105.295 E0.01277
G1 X122.033 Y105.295 E0.02365
G1 X122.033 Y104.888 E0.01277
G1 X122.787 Y104.888 E0.02365
G1 X122.787 Y105.295 E0.01277
G1 X123.542 Y105.295 E0.02365
G1 X123.542 Y104.888 E0.01277
G1 X124.296 Y104.888 E0.02365
G1 X124.296 Y105.295 E0.01277
G1 X125.050 Y105.295 E0.02365
G1 X125.050 Y104.888 E0.01277
G1 X125.804 Y104.888 E0.02365
G1 X125.804 Y105.295 E0.01277
G1 X126.558 Y105.295 E0.02365
G1 X126.558 Y104.888 E0.01277
G1 X127.312 Y104.888 E0.02365
G1 X127.312 Y105.295 E0.01277
G1 X128.067 Y105.295 E0.02365
G1 X128.067 Y104.888 E0.01277
G1 X128.821 Y104.888 E0.02365
G1 X128.821 Y105.295 E0.01277
G1 X129.575 Y105.295 E0.02365
G1 X129.575 Y104.888 E0.01277
G1 X130.329 Y104.888 E0.02365
G1 X130.329 Y105.465 E0.01810
G1 X130.329 Y106.282 F10800.000
G1 F1200
G1 X130.329 Y105.705 E0.01809
G1 X129.575 Y105.705 E0.02365
G1 X129.575 Y106.112 E0.01277
G1 X128.821 Y106.112 E0.02365
G1 X128.821 Y105.705 E0.01277
G1 X128.067 Y105.705 E0.02365
G1 X128.067 Y106.112 E0.01277
G1 X127.312 Y106.112 E0.02365
G1 X127.312 Y105.705 E0.01277
G1 X126.558 Y105.705 E0.02365
G1 X126.558 Y106.112 E0.01277
G1 X125.804 Y106.112 E0.02365
G1 X125.804 Y105.705 E0.01277
G1 X125.050 Y105.705 E0.02365
G1 X125.050 Y106.112 E0.01277
G1 X124.296 Y106.112 E0.02365
G1 X124.296 Y105.705 E0.01277
G1 X123.542 Y105.705 E0.02365
G1 X123.542 Y106.112 E0.01277
G1 X122.787 Y106.112 E0.02365
G1 X122.787 Y105.705 E0.01277
G1 X122.033 Y105.705 E0.02365
G1 X122.033 Y106.112 E0.01277
G1 X121.279 Y106.112 E0.02365
G1 X121.279 Y105.705 E0.01277
G1 X120.525 Y105.705 E0.02365
G1 X120.525 Y106.282 E0.01809
G1 X119.771 Y106.373 F10800.000
G1 F1200
G1 X119.771 Y106.978 E0.01896
G1 F8640
G1 X119.771 Y106.373 E-0.13966
G1 E-0.66034 F2100.00000
G1 Z0.800 F10800.000
G1 X112.983 Y111.774
G1 Z0.200
G1 E0.80000 F2100.00000
G1 F1200
G1 X112.983 Y100.996 E0.33794
G1 X112.229 Y100.996 E0.02365
G1 X112.229 Y111.604 E0.33262
G1 X111.475 Y111.604 E0.02365
G1 X111.475 Y100.996 E0.33262
G1 X110.721 Y100.996 E0.02365
G1 X110.721 Y111.774 E0.33794
G1 F8640
G1 X110.721 Y108.482 E-0.76000
G1 E-0.04000 F2100.00000
G1 Z0.800 F10800.000
G1 X129.742 Y108.776
G1 Z0.200
G1 E0.80000 F2100.00000
G1 F1200
G1 X129.742 Y106.465 E0.05901
G1 X129.213 Y106.465 E0.01350
G1 X129.213 Y108.628 E0.05523
G1 X128.685 Y108.628 E0.01350
G1 X128.685 Y106.465 E0.05523
G1 X128.156 Y106.465 E0.01350
G1 X128.156 Y108.628 E0.05523
G1 X127.628 Y108.628 E0.01350
G1 X127.628 Y106.465 E0.05523
G1 X127.099 Y106.465 E0.01350
G1 X127.099 Y108.628 E0.05523
G1 X126.571 Y108.628 E0.01350
G1 X126.571 Y106.465 E0.05523
G1 X126.042 Y106.465 E0.01350
G1 X126.042 Y108.628 E0.05523
G1 X125.514 Y108.628 E0.01350
G1 X125.514 Y106.465 E0.05523
G1 X124.985 Y106.465 E0.01350
G1 X124.985 Y108.628 E0.05523
G1 X124.457 Y108.628 E0.01350
G1 X124.457 Y106.465 E0.05523
G1 X123.928 Y106.465 E0.01350
G1 X123.928 Y108.628 E0.05523
G1 X123.400 Y108.628 E0.01350
G1 X123.400 Y106.465 E0.05523
G1 X122.871 Y106.465 E0.01350
G1 X122.871 Y108.628 E0.05523
G1 X122.342 Y108.628 E0.01350
G1 X122.342 Y106.465 E0.05523
G1 X121.814 Y106.465 E0.01350
G1 X121.814 Y108.628 E0.05523
G1 X121.285 Y108.628 E0.01350
G1 X121.285 Y106.465 E0.05523
G1 X120.757 Y106.465 E0.01350
G1 X120.757 Y108.628 E0.05523
G1 X120.228 Y108.628 E0.01350
G1 X120.228 Y106.976 E0.04219
G1 X120.027 Y107.162 E0.00699
G1 X119.700 Y107.162 E0.00835
G1 X119.700 Y108.628 E0.03745
G1 X119.171 Y108.628 E0.01350
G1 X119.171 Y107.162 E0.03745
G1 X118.973 Y107.162 E0.00506
G1 X118.750 Y106.956 E0.00775
G1 X118.709 Y106.465 E0.01258
G1 X118.643 Y106.465 E0.00169
G1 X118.643 Y108.628 E0.05523
G1 X118.114 Y108.628 E0.01350
G1 X118.114 Y106.465 E0.05523
G1 X117.586 Y106.465 E0.01350
G1 X117.586 Y108.628 E0.05523
G1 X117.057 Y108.628 E0.01350
G1 X117.057 Y106.465 E0.05523
G1 X116.529 Y106.465 E0.01350
G1 X116.529 Y108.628 E0.05523
G1 X116.000 Y108.628 E0.01350
G1 X116.000 Y106.382 E0.05736
G1 X115.858 Y106.292 E0.00429
G1 X115.695 Y105.947 E0.00975
G1 X115.668 Y105.827 E0.00314
G1 X115.668 Y105.173 E0.01668
G1 X115.695 Y105.053 E0.00314
G1 X115.858 Y104.708 E0.00975
G1 X116.000 Y104.618 E0.00429
G1 X116.000 Y103.971 E0.01651
G1 X116.529 Y103.971 E0.01350
G1 X116.529 Y104.535 E0.01439
G1 X117.057 Y104.535 E0.01350
G1 X117.057 Y103.971 E0.01439
G1 X117.586 Y103.971 E0.01350
G1 X117.586 Y104.535 E0.01439
G1 X118.114 Y104.535 E0.01350
G1 X118.114 Y103.971 E0.01439
G1 X118.643 Y103.971 E0.01350
G1 X118.643 Y104.535 E0.01439
G1 X118.725 Y104.535 E0.00211
G1 X118.750 Y104.240 E0.00754
G1 X118.973 Y104.035 E0.00775
G1 X119.171 Y104.035 E0.00506
G1 X119.171 Y103.971 E0.00163
G1 X119.700 Y103.971 E0.01350
G1 X119.700 Y104.035 E0.00163
G1 X120.027 Y104.035 E0.00835
G1 X120.228 Y104.220 E0.00699
G1 X120.228 Y103.971 E0.00636
G1 X120.757 Y103.971 E0.01350
G1 X120.757 Y104.535 E0.01439
G1 X121.285 Y104.535 E0.01350
G1 X121.285 Y103.971 E0.01439
G1 X121.814 Y103.971 E0.01350
G1 X121.814 Y104.535 E0.01439
G1 X122.342 Y104.535 E0.01350
G1 X122.342 Y103.971 E0.01439
G1 X122.871 Y103.971 E0.01350
G1 X122.871 Y104.535 E0.01439
G1 X123.400 Y104.535 E0.01350
G1 X123.400 Y103.971 E0.01439
G1 X123.928 Y103.971 E0.01350
G1 X123.928 Y104.535 E0.01439
G1 X124.457 Y104.535 E0.01350
G1 X124.457 Y103.971 E0.01439
G1 X124.985 Y103.971 E0.01350
G1 X124.985 Y104.535 E0.01439
G1 X125.514 Y104.535 E0.01350
G1 X125.514 Y103.971 E0.01439
G1 X126.042 Y103.971 E0.01350
G1 X126.042 Y104.535 E0.01439
G1 X126.571 Y104.535 E0.01350
G1 X126.571 Y103.971 E0.01439
G1 X127.099 Y103.971 E0.01350
G1 X127.099 Y104.535 E0.01439
G1 X127.628 Y104.535 E0.01350
G1 X127.628 Y103.971 E0.01439
G1 X128.156 Y103.971 E0.01350
G1 X128.156 Y104.535 E0.01439
G1 X128.685 Y104.535 E0.01350
G1 X128.685 Y103.971 E0.01439
G1 X129.213 Y103.971 E0.01350
G1 X129.213 Y104.535 E0.01439
G1 X129.742 Y104.535 E0.01350
G1 X129.742 Y103.823 E0.01817
G1 F8640
G1 X129.742 Y104.535 E-0.16428
G1 X129.213 Y104.535 E-0.12204
G1 X129.213 Y103.971 E-0.13014
G1 X128.685 Y103.971 E-0.12204
G1 X128.685 Y104.535 E-0.13014
G1 X128.289 Y104.535 E-0.09136
G1 E-0.04000 F2100.00000
G1 Z0.800 F10800.000
G1 X130.271 Y92.675
G1 Z0.200
G1 E0.80000 F2100.00000
G1 F1200
G1 X130.271 Y87.671 E0.12775
G1 X130.799 Y87.671 E0.01350
G1 X130.799 Y89.676 E0.05118
G1 X131.328 Y89.668 E0.01350
G1 X131.328 Y87.671 E0.05099
G1 X131.856 Y87.671 E0.01350
G1 X131.856 Y90.116 E0.06242
G1 X131.083 Y89.852 F10800.000
G1 F1200
G1 X131.083 Y92.668 E0.08830
G1 F8640
G1 X131.083 Y89.852 E-0.65024
G1 E-0.14976 F2100.00000
G1 Z0.800 F10800.000
G1 X131.083 Y117.332
G1 Z0.200
G1 E0.80000 F2100.00000
G1 F1200
G1 X131.083 Y120.148 E0.08830
G1 X131.856 Y119.884 F10800.000
G1 F1200
G1 X131.856 Y120.419 E0.01365
G1 F8640
G1 X131.856 Y119.884 E-0.12347
G1 E-0.67653 F2100.00000
G1 Z0.800 F10800.000
G1 X130.271 Y120.419
G1 Z0.200
G1 E0.80000 F2100.00000
G1 F1200
G1 X130.271 Y117.325 E0.07899
G1 F8640
G1 X130.271 Y120.419 E-0.71433
G1 E-0.08567 F2100.00000
G1 Z0.800 F10800.000
G1 X131.837 Y123.416
G1 Z0.200
G1 E0.80000 F2100.00000
G1 F1200
G1 X131.837 Y120.624 E0.08756
G1 X131.083 Y120.624 E0.02365
G1 X131.083 Y123.247 E0.08224
G1 X130.329 Y123.247 E0.02365
G1 X130.329 Y120.624 E0.08223
G1 X129.618 Y120.624 E0.02228
G1 X129.618 Y108.981 E0.36505
G1 X129.575 Y108.981 E0.00136
G1 X129.575 Y123.247 E0.44728
G1 X128.821 Y123.247 E0.02365
G1 X128.821 Y108.981 E0.44728
G1 X128.067 Y108.981 E0.02365
G1 X128.067 Y123.247 E0.44728
G1 X127.312 Y123.247 E0.02365
G1 X127.312 Y108.981 E0.44728
G1 X126.558 Y108.981 E0.02365
G1 X126.558 Y123.247 E0.44728
G1 X125.804 Y123.247 E0.02365
G1 X125.804 Y108.981 E0.44728
G1 X125.050 Y108.981 E0.02365
G1 X125.050 Y123.247 E0.44728
G1 X124.667 Y123.247 E0.01200
G1 X124.667 Y111.604 E0.36505
G1 X124.296 Y111.604 E0.01164
G1 X124.296 Y108.981 E0.08223
G1 X123.542 Y108.981 E0.02365
G1 X123.542 Y111.604 E0.08223
G1 X122.787 Y111.604 E0.02365
G1 X122.787 Y108.981 E0.08223
G1 X122.033 Y108.981 E0.02365
G1 X122.033 Y111.604 E0.08223
G1 X121.279 Y111.604 E0.02365
G1 X121.279 Y108.981 E0.08223
G1 X120.525 Y108.981 E0.02365
G1 X120.525 Y111.604 E0.08223
G1 X119.771 Y111.604 E0.02365
G1 X119.771 Y108.981 E0.08223
G1 X119.017 Y108.981 E0.02365
G1 X119.017 Y111.604 E0.08223
G1 X118.262 Y111.604 E0.02365
G1 X118.262 Y108.981 E0.08223
G1 X117.508 Y108.981 E0.02365
G1 X117.508 Y111.604 E0.08223
G1 X116.754 Y111.604 E0.02365
G1 X116.754 Y108.981 E0.08223
G1 X116.000 Y108.981 E0.02365
G1 X116.000 Y111.604 E0.08223
G1 X115.246 Y111.604 E0.02365
G1 X115.246 Y108.981 E0.08223
G1 X114.492 Y108.981 E0.02365
G1 X114.492 Y111.604 E0.08223
G1 X113.738 Y111.604 E0.02365
G1 X113.738 Y108.981 E0.08223
G1 X113.319 Y108.981 E0.01314
G1 X113.319 Y103.618 E0.16815
G1 X113.738 Y103.618 E0.01314
G1 X113.738 Y100.996 E0.08224
G1 X114.492 Y100.996 E0.02365
G1 X114.492 Y103.618 E0.08224
G1 X115.246 Y103.618 E0.02365
G1 X115.246 Y100.996 E0.08224
G1 X115.353 Y100.996 E0.00336
G1 X115.353 Y98.667 E0.07301
G1 X116.000 Y98.667 E0.02029
G1 X116.000 Y103.618 E0.15525
G1 X116.754 Y103.618 E0.02365
G1 X116.754 Y98.667 E0.15525
G1 X117.508 Y98.667 E0.02365
G1 X117.508 Y103.618 E0.15525
G1 X118.262 Y103.618 E0.02365
G1 X118.262 Y98.667 E0.15525
G1 X119.017 Y98.667 E0.02365
G1 X119.017 Y103.618 E0.15525
G1 X119.771 Y103.618 E0.02365
G1 X119.771 Y98.667 E0.15525
G1 X120.525 Y98.667 E0.02365
G1 X120.525 Y103.618 E0.15525
G1 X121.279 Y103.618 E0.02365
G1 X121.279 Y98.667 E0.15524
G1 X122.033 Y98.667 E0.02365
G1 X122.033 Y103.618 E0.15524
G1 X122.787 Y103.618 E0.02365
G1 X122.787 Y98.667 E0.15524
G1 X123.542 Y98.667 E0.02365
G1 X123.542 Y103.618 E0.15524
G1 X124.296 Y103.618 E0.02365
G1 X124.296 Y100.996 E0.08223
G1 X124.667 Y100.996 E0.01164
G1 X124.667 Y84.696 E0.51107
G1 X125.050 Y84.696 E0.01201
G1 X125.050 Y103.618 E0.59330
G1 X125.804 Y103.618 E0.02365
G1 X125.804 Y84.696 E0.59330
G1 X126.558 Y84.696 E0.02365
G1 X126.558 Y103.618 E0.59330
G1 X127.312 Y103.618 E0.02365
G1 X127.312 Y84.696 E0.59330
G1 X128.067 Y84.696 E0.02365
G1 X128.067 Y103.618 E0.59330
G1 X128.821 Y103.618 E0.02365
G1 X128.821 Y84.696 E0.59330
G1 X129.575 Y84.696 E0.02365
G1 X129.575 Y103.618 E0.59330
G1 X129.618 Y103.618 E0.00136
G1 X129.618 Y87.319 E0.51107
G1 X130.329 Y87.319 E0.02228
G1 X130.329 Y84.696 E0.08224
G1 X131.083 Y84.696 E0.02365
G1 X131.083 Y87.319 E0.08224
G1 X131.837 Y87.319 E0.02365
G1 X131.837 Y84.696 E0.08223
G1 X132.591 Y84.696 E0.02365
G1 X132.591 Y123.247 E1.20874
G1 X133.346 Y123.247 E0.02365
G1 X133.346 Y84.696 E1.20874
G1 X134.100 Y84.696 E0.02365
G1 X134.100 Y123.247 E1.20874
G1 X134.854 Y123.247 E0.02365
G1 X134.854 Y84.696 E1.20874
G1 X135.608 Y84.696 E0.02365
G1 X135.608 Y123.247 E1.20874
M73 Q7 S13
M73 P7 R13
G1 X136.362 Y123.247 E0.02365
G1 X136.362 Y84.696 E1.20874
G1 X137.116 Y84.696 E0.02365
G1 X137.116 Y123.416 E1.21406
G1 F8640
G1 X137.116 Y120.125 E-0.76000
G1 E-0.04000 F2100.00000
G1 Z0.800 F10800.000
G1 X131.670 Y116.871
G1 Z0.200
G1 E0.80000 F2100.00000
G1 F1200
G1 X130.831 Y116.871 E0.02629
G1 X130.831 Y116.530 E0.01068
G1 X131.670 Y116.529 E0.02629
G1 X131.670 Y116.811 E0.00884
G1 X131.273 Y116.820 F10800.000
G1 F8640
G1 X130.831 Y116.871 E-0.19411
G1 X130.831 Y116.530 E-0.07865
G1 X131.670 Y116.529 E-0.19362
G1 X131.670 Y116.811 E-0.06510
G1 E-0.26852 F2100.00000
G1 Z0.800 F10800.000
G1 X119.669 Y105.920
G1 Z0.200
G1 E0.80000 F2100.00000
G1 F1200
G1 X119.329 Y105.920 E0.01065
G1 X119.329 Y105.080 E0.02631
G1 X119.671 Y105.080 E0.01072
G1 X119.670 Y105.860 E0.02443
G1 X119.355 Y105.789 F10800.000
G1 F8640
G1 X119.329 Y105.920 E-0.07985
G1 X119.329 Y105.080 E-0.19379
G1 X119.671 Y105.080 E-0.07896
G1 X119.670 Y105.860 E-0.17994
G1 E-0.26747 F2100.00000
G1 Z0.800 F10800.000
G1 X130.831 Y93.471
G1 Z0.200
G1 E0.80000 F2100.00000
G1 F1200
G1 X130.831 Y93.130 E0.01068
G1 X131.670 Y93.129 E0.02629
G1 X131.670 Y93.471 E0.01072
G1 X130.891 Y93.473 E0.02441
G1 X130.962 Y93.157 F10800.000
M106 S255
;BEFORE_LAYER_CHANGE
G92 E0.0
;0.3


G1 F8640
G1 X130.831 Y93.130 E-0.08025
G1 X131.670 Y93.129 E-0.19362
G1 X131.670 Y93.471 E-0.07896
G1 X130.891 Y93.473 E-0.17977
G1 E-0.26740 F2100.00000
G1 Z0.800 F10800.000
;AFTER_LAYER_CHANGE
;0.3
G1 X139.107 Y83.786
G1 Z0.300
G1 E0.80000 F2100.00000
G1 F900
G1 X139.302 Y84.588 E0.01366
G1 X139.305 Y123.420 E0.64343
G1 X139.209 Y124.057 E0.01068
G1 X138.929 Y124.642 E0.01074
G1 X138.491 Y125.119 E0.01074
